X: 17
T:Iron Legs Hornpipe. JaW.017
M:C|
L:1/8
Q:1/4=180
C:"John Winder Dancing Master Way of Playing It"
S:James Winder Ms, Lancashire, 1835-41
R:Hornpipe
O:England
A:Wyresdale,Lancashire
H:1/8
Z:vmp.Chris Partington, Aug 2004
K:D
AG | F2 AF E2 AG | F2EF D2 A2 | B2 c2 d2 ed | c2Bc A2AG |!
F2 A2 E2 AG | F2EF D2 A2 | Bcde fedc | d2d2 d2 :|!
|:z2|fgfg egeg | fgfg egeg | dede cece | dede cece |!
 BdBd AdAd |BdBd AdAd | Bcd2 gedc | d2d2 d2 :|]
